symbols/web/switch_account/materialsymbolsrounded/switch_account_gradN25_48px.svg

<svg xmlns="http://www.w3.org/2000/svg" height="48" width="48"><path d="M26.85 24.25q2.5 0 4.175-1.675Q32.7 20.9 32.7 18.45q0-2.5-1.675-4.175Q29.35 12.6 26.85 12.6q-2.45 0-4.1 1.675Q21.1 15.95 21.1 18.4q0 2.5 1.65 4.175 1.65 1.675 4.1 1.675ZM12.9 35.2q2.95-3.7 6.775-5.4 3.825-1.7 7.225-1.7 3.35 0 7.175 1.7 3.825 1.7 6.825 5.4V7.1h-28v28.1Zm0 2.8q-1.15 0-2.025-.875T10 35.1v-28q0-1.1.875-1.975T12.9 4.25h28q1.1 0 1.975.875T43.75 7.1v28q0 1.15-.875 2.025T40.9 38Zm-5.75 5.75q-1.15 0-2.025-.875T4.25 40.85V14.1q0-.6.425-1.025.425-.425 1.025-.425.6 0 1.025.425.425.425.425 1.025v26.75H33.9q.6 0 1.025.425.425.425.425 1.025 0 .6-.425 1.025-.425.425-1.025.425Zm19.75-22.4q-1.25 0-2.1-.85-.85-.85-.85-2.05 0-1.25.85-2.1.85-.85 2.05-.85 1.25 0 2.125.85t.875 2.05q0 1.25-.875 2.1-.875.85-2.075.85ZM17.45 35.1h18.9q-1.6-1.75-4.175-2.925Q29.6 31 26.9 31q-2.75 0-5.325 1.175T17.45 35.1Zm9.45-13.95Z"/></svg>

<svg xmlns="http://www.w3.org/2000/svg" height="48" width="48"><path d="M26.85 24.25Q29.35 24.25 31.025 22.575Q32.7 20.9 32.7 18.45Q32.7 15.95 31.025 14.275Q29.35 12.6 26.85 12.6Q24.4 12.6 22.75 14.275Q21.1 15.95 21.1 18.4Q21.1 20.9 22.75 22.575Q24.4 24.25 26.85 24.25ZM12.9 35.2Q15.85 31.5 19.675 29.8Q23.5 28.1 26.9 28.1Q30.25 28.1 34.075 29.8Q37.9 31.5 40.9 35.2Q40.9 35.2 40.9 35.2Q40.9 35.2 40.9 35.2V7.1Q40.9 7.1 40.9 7.1Q40.9 7.1 40.9 7.1H12.9Q12.9 7.1 12.9 7.1Q12.9 7.1 12.9 7.1V35.2Q12.9 35.2 12.9 35.2Q12.9 35.2 12.9 35.2ZM12.9 38Q11.75 38 10.875 37.125Q10 36.25 10 35.1V7.1Q10 6 10.875 5.125Q11.75 4.25 12.9 4.25H40.9Q42 4.25 42.875 5.125Q43.75 6 43.75 7.1V35.1Q43.75 36.25 42.875 37.125Q42 38 40.9 38ZM7.15 43.75Q6 43.75 5.125 42.875Q4.25 42 4.25 40.85V14.1Q4.25 13.5 4.675 13.075Q5.1 12.65 5.7 12.65Q6.3 12.65 6.725 13.075Q7.15 13.5 7.15 14.1V40.85Q7.15 40.85 7.15 40.85Q7.15 40.85 7.15 40.85H33.9Q34.5 40.85 34.925 41.275Q35.35 41.7 35.35 42.3Q35.35 42.9 34.925 43.325Q34.5 43.75 33.9 43.75ZM26.9 21.35Q25.65 21.35 24.8 20.5Q23.95 19.65 23.95 18.45Q23.95 17.2 24.8 16.35Q25.65 15.5 26.85 15.5Q28.1 15.5 28.975 16.35Q29.85 17.2 29.85 18.4Q29.85 19.65 28.975 20.5Q28.1 21.35 26.9 21.35ZM17.45 35.1H36.35Q34.75 33.35 32.175 32.175Q29.6 31 26.9 31Q24.15 31 21.575 32.175Q19 33.35 17.45 35.1ZM26.9 21.15Q26.9 21.15 26.9 21.15Q26.9 21.15 26.9 21.15Q26.9 21.15 26.9 21.15Q26.9 21.15 26.9 21.15Q26.9 21.15 26.9 21.15Q26.9 21.15 26.9 21.15Q26.9 21.15 26.9 21.15Q26.9 21.15 26.9 21.15Q26.9 21.15 26.9 21.15Q26.9 21.15 26.9 21.15Q26.9 21.15 26.9 21.15Q26.9 21.15 26.9 21.15Z"/></svg>
